public/images/github.svg

<svg fill="none" height="800" viewBox="0 0 24 24" width="800" xmlns="http://www.w3.org/2000/svg"><path clip-rule="evenodd" d="m12 2c-5.525 0-10 4.475-10 10 0 4.425 2.8625 8.1625 6.8375 9.4875.5.0875.6875-.2125.6875-.475 0-.2375-.0125-1.025-.0125-1.8625-2.5125.4625-3.1625-.6125-3.3625-1.175-.1125-.2875-.6-1.175-1.025-1.4125-.35-.1875-.85-.65-.0125-.6625.7875-.0125 1.35.725 1.5375 1.025.9 1.5125 2.3375 1.0875 2.9125.825.0875-.65.35-1.0875.6375-1.3375-2.225-.25-4.55-1.1125-4.55-4.9375 0-1.0875.3875-1.9875 1.025-2.6875-.1-.25-.45-1.275.1-2.65 0 0 .8375-.2625 2.75 1.025.8-.225 1.65-.3375 2.5-.3375s1.7.1125 2.5.3375c1.9125-1.3 2.75-1.025 2.75-1.025.55 1.375.2 2.4.1 2.65.6375.7 1.025 1.5875 1.025 2.6875 0 3.8375-2.3375 4.6875-4.5625 4.9375.3625.3125.675.9125.675 1.85 0 1.3375-.0125 2.4125-.0125 2.75 0 .2625.1875.575.6875.475 1.9852-.6702 3.7102-1.946 4.9323-3.648 1.2221-1.7019 1.8797-3.7442 1.8802-5.8395 0-5.525-4.475-10-10-10z" fill-rule="evenodd" stroke="#000" stroke-linejoin="round"/></svg>

<?xml version="1.0" encoding="utf-8"?><!-- Uploaded to: SVG Repo, www.svgrepo.com, Generator: SVG Repo Mixer Tools -->
<svg width="800px" height="800px" viewBox="0 0 24 24" fill="none" xmlns="http://www.w3.org/2000/svg">
<path fill-rule="evenodd" clip-rule="evenodd" d="M12 2C6.475 2 2 6.475 2 12C2 16.425 4.8625 20.1625 8.8375 21.4875C9.3375 21.575 9.525 21.275 9.525 21.0125C9.525 20.775 9.5125 19.9875 9.5125 19.15C7 19.6125 6.35 18.5375 6.15 17.975C6.0375 17.6875 5.55 16.8 5.125 16.5625C4.775 16.375 4.275 15.9125 5.1125 15.9C5.9 15.8875 6.4625 16.625 6.65 16.925C7.55 18.4375 8.9875 18.0125 9.5625 17.75C9.65 17.1 9.9125 16.6625 10.2 16.4125C7.975 16.1625 5.65 15.3 5.65 11.475C5.65 10.3875 6.0375 9.4875 6.675 8.7875C6.575 8.5375 6.225 7.5125 6.775 6.1375C6.775 6.1375 7.6125 5.875 9.525 7.1625C10.325 6.9375 11.175 6.825 12.025 6.825C12.875 6.825 13.725 6.9375 14.525 7.1625C16.4375 5.8625 17.275 6.1375 17.275 6.1375C17.825 7.5125 17.475 8.5375 17.375 8.7875C18.0125 9.4875 18.4 10.375 18.4 11.475C18.4 15.3125 16.0625 16.1625 13.8375 16.4125C14.2 16.725 14.5125 17.325 14.5125 18.2625C14.5125 19.6 14.5 20.675 14.5 21.0125C14.5 21.275 14.6875 21.5875 15.1875 21.4875C17.1727 20.8173 18.8977 19.5415 20.1198 17.8395C21.3419 16.1376 21.9995 14.0953 22 12C22 6.475 17.525 2 12 2Z" stroke="#000000" stroke-linejoin="round"/>
</svg>
